svg/color/vite.svg

<svg width="63" height="60" viewBox="0 0 63 60" fill="none" xmlns="http://www.w3.org/2000/svg">
<path d="M21.6398 15.9694L8.66788 6.55601C4.12668 3.2627 -1.83235 8.15601 0.538782 13.229C6.43194 25.8355 13.5245 41.0441 16.0621 46.6666L24.7631 28.0022C26.7391 23.762 25.4322 18.7201 21.6363 15.9659L21.6398 15.9694Z" fill="url(#paint0_linear_404_400)"/>
<path d="M52.4957 3.17631L61.4082 22.1379C63.3876 26.3469 62.0426 31.3681 58.2224 34.0325L21.7368 59.4942C19.4593 61.0839 16.5439 58.6407 17.7156 56.1318L42.4669 3.18667C44.4498 -1.05695 50.5024 -1.06386 52.4957 3.17631Z" fill="url(#paint1_linear_404_400)"/>
<defs>
<linearGradient id="paint0_linear_404_400" x1="5.62077" y1="28.6346" x2="23.8401" y2="18.0798" gradientUnits="userSpaceOnUse">
<stop stop-color="#00BEFF"/>
<stop offset="1" stop-color="#00FF95"/>
</linearGradient>
<linearGradient id="paint1_linear_404_400" x1="9.28494" y1="43.8951" x2="59.319" y2="14.9179" gradientUnits="userSpaceOnUse">
<stop stop-color="#00BEFF"/>
<stop offset="1" stop-color="#00FF95"/>
</linearGradient>
</defs>
</svg>

<svg xmlns="http://www.w3.org/2000/svg" width="63" height="60" fill="none" viewBox="0 0 63 60"><path fill="url(#vite_svg-a)" d="M21.64 15.97 8.668 6.555c-4.541-3.293-10.5 1.6-8.13 6.673 5.894 12.607 12.987 27.815 15.524 33.438l8.701-18.665a9.77 9.77 0 0 0-3.127-12.036z"/><path fill="url(#vite_svg-b)" d="m52.496 3.176 8.912 18.962a9.55 9.55 0 0 1-3.186 11.894L21.737 59.495c-2.278 1.59-5.193-.853-4.021-3.362l24.75-52.945c1.984-4.244 8.036-4.25 10.03-.01"/><defs><linearGradient id="vite_svg-a" x1="5.621" x2="23.84" y1="28.635" y2="18.08" gradientUnits="userSpaceOnUse"><stop stop-color="#00BEFF"/><stop offset="1" stop-color="#00FF95"/></linearGradient><linearGradient id="vite_svg-b" x1="9.285" x2="59.319" y1="43.895" y2="14.918" gradientUnits="userSpaceOnUse"><stop stop-color="#00BEFF"/><stop offset="1" stop-color="#00FF95"/></linearGradient></defs></svg>
